X:1
T:Haste to the Wedding
M:6/8
R:jig
E:9
I:speed 350
K:D
A|AFA Agf|ede fdB|AFA AGF|GFG EFG|\
AFA Agf|ede fdB|AFA faf|ded d2:|*
a|afa afa|bgb bgb|afa afa |gfg efg|\
a3 ~f3|ede fdB|AFA faf|ded d2:|**
<end>
<start>
